!!!COM: Music21
!!!OTL: Valse do Limoeiro
!!!OMV: pezas_valses_valse-do-limoeiro_valse-do-limoeiro-partitura.musicxml
**kern
*part1
*staff1
*I"Bagpipes
*I'Bag
*clefG^2
*k[]
*M3/4
=1
!LO:TX:a:t=Presto
*MM170
!LO:TX:a:t=[quarter]=170
4r
4cc
4ee
=||
2gg
[4gg
=
4gg]
4cc
4ee
=
2gg
[4gg
=
4gg]
4ff
4ee
=
4dd
4dd
4cc
=
4b
4ccc
4bb
=
[2.gg
=
2.gg]
=
4.aa
8aa
4aa
!!linebreak:original
=
4aa
4gg
4ff
!!linebreak:original
=
8ggL
8aaJ
8ggL
8ffJ
4ee
=
4ff
4ee
4dd
=
[2.ee
=
4ee]
4cc
4ee
=||
2gg
[4gg
=
4gg]
4cc
4ee
=
2gg
[4gg
=
4gg]
4ff
4ee
=
4dd
4dd
4cc
=
4b
4ccc
4bb
=
[2.gg
!!linebreak:original
=
2.gg]
=
4.aa
8aa
4aa
=
4aa
4gg
4ff
!!linebreak:original
=
8ggL
8aaJ
8ggL
8ffJ
4ee
=
4ff
4ee
4dd
=
[2.ee
=
2.ee]
=||
4.ee
8ff
4gg
=
4aa
4ff
4gg
=
4.ee
8ff
4gg
=
4aa
4ff
4gg
!!pagebreak:original
=
4.ee
8gg
[4ff
=
2.ff_
=
2.ff]
=
4.dd
8ee
4ff
=
4gg
4ee
4ff
=
4.dd
8ee
4ff
=
4gg
4ee
4ff
=
4.dd
8ff
[4ee
=
2.ee_
=
2.ee]
!!linebreak:original
=||
4.ee
8ff
4gg
=
4aa
4ff
4gg
=
4.ee
8ff
4gg
=
4aa
4ff
4gg
!!linebreak:original
=
4.ee
8gg
[4ff
=
2.ff_
=
2.ff]
=
4.dd
8ee
4ff
=
4gg
4ee
4ff
=
4.dd
8ee
4ff
=
4gg
4ee
4ff
=
4.dd
8ff
[4ee
!!linebreak:original
=
2.ee_
=
4ee]
4cc
4ee
==
*-
!!!system-decoration: s1,s2
